X:1
T:LA ELECTRICA
T:LA ELECTRICA
T:por N FONTANALS
T:POLKA PARA PIANO
T:H. 7282. V.
T:H. 7282. V.
T:H. 7282. V.
T:H. 7282. V.
T:H. 7282. V.
C:por N FONTANALS
Z:POLKA PARA PIANO
Z:H. 7282. V.
%%score { ( 1 3 ) | ( 2 4 ) }
L:1/8
Q:1/4=90
M:2/4
K:Ab
V:1 treble nm="Piano" snm="Pno."
V:3 treble 
V:2 bass 
V:4 bass 
V:1
!ff! !>![ee']/!>![=d=d']/ | !>![dd'] e/f/ e2 | %2
 z !>![ee']/!>![=d=d']/ !>![_d_d']!>![ee']/!>![dd']/ | !>![cc'] e/f/ e2 | %4
 z !>![ee']/!>![dd']/ !>![cc']!>![dd']/!>![cc']/ | !>![Bb] B/c/ B !>![Bb] | %6
 !>![Aa] E/F/ E !>![Aa] | [Gg] E/F/ E2- | E2 z ||[M:2/4] E/c/ | AE{/F} E/=D/E/F/ | %11
 E c/d/ =d/e/f/g/ | a/g/a/c'/ e'f' | f'/e'/d'/b/ e E/d/ | BE{/F} E/=D/E/F/ | E g/a/ b/=a/b/c'/ | %16
 d'/c'/d'/e'/ g'f' | f'/e'/c'/a/ e E/c/ | AE{/F} E/=D/E/F/ | E c/d/ =d/e/f/g/ | %20
{/b} a/g/a/c'/ e'f' | f'/e'/d'/b/ f f |{/e'} d'(f/d'/) (d'/f/)(_f/d'/) | c'e{/f} e/=d/e/f/ | %24
 g/a/b/c'/ d'/f'/e'/g/ | a z!8va(! [a'c''a'']!8va)! || E/c/ | B=D{/E} D/^C/D/F/ | %28
 [Ac][Ac] [Ac] =A/B/ | [=dg][dg] [dg] =e/f/ | [gc'][gc'] [gc'] z | %31
 (3b/c'/b/ =a/b/!8va(! g'/=d'/f'/e'/ | [a'c''][a'c''] [a'c'']!8va)! z | %33
 (3=d/e/d/ ^c/d/ =c'/a/f/d/ | [gc'][gc'] [gb] E/c/ | B=D{/E} D/^C/D/F/ | [Ac][Ac] [Ac] =A/B/ | %37
 [=dg][dg] [dg] =e/f/ | [gc'][gc'] [gc']!8va(! e'/f'/ | _g'g'!8va)! (3(_g/a/g/ f/e/) | %40
 c'b (g/e/B/=B/) |{/=d} (c/=B/c/e/) (d/^c/d/f/) | e e'/f'/ e'2 | z e/f/ e2 | z E/F/ EE | EEEE | %46
 c2 B>A | G2- G/(A/=A/B/ | f2) e>d | c2- c/(d/=d/e/ | b2) a>g | gf- f/(f/=e/f/ | c'2) b>a | %53
 (a/g/)(g/f/) (f/e/)(e/d/) | c2 B(3A/B/A/ | G2 G/A/=A/B/ | f2 e(3d/e/d/ | c2 c/d/=d/e/ | %58
 =e/f/^f/g/ a/=a/b/=b/ | d'>c' b/a/g/f/ |{/g} f/e/e/c'/ c'>b | [ca] z [ac'a'] E/c/ | %62
 [Ac][Ac] [Ac] =A/B/ | [=dg][dg] [dg] =e/f/ | [gc'][gc'] [gc'] z | %65
 (3b/c'/b/ =a/b/!8va(! g'/=d'/f'/e'/ | [a'c''][a'c''] [a'c'']!8va)! z | %67
 (3=d/e/d/ ^c/d/ =c'/a/f/d/ | [gc'][gc'] [gb] E/c/ | B=D{/E} D/^C/D/F/ | [Ac][Ac] [Ac] =A/B/ | %71
 [=dg][dg] [dg] =e/f/ | [gc'][gc'] [gc']!8va(! e'/f'/ | _g'g'!8va)! (3(_g/a/g/ f/e/) | %74
 c'b (g/e/B/=B/) |{/=d} (c/=B/c/e/) (d/^c/d/f/) | e z [egbe'] E/c/ | AE{/F} E/=D/E/F/ | %78
 E c/d/ =d/e/f/g/ | a/g/a/c'/ e'f' | f'/e'/d'/b/ e E/d/ | BE{/F} E/=D/E/F/ | E g/a/ b/=a/b/c'/ | %83
 d'/c'/d'/e'/ g'f' | f'/e'/c'/a/ e E/c/ | AE{/F} E/=D/E/F/ | E c/d/ =d/e/f/g/ | %87
{/b} a/g/a/c'/ e'f' | f'/e'/d'/b/ f f |{/e'} d'(f/d'/) (d'/f/)(_f/d'/) | c'e{/f} e/=d/e/f/ | %91
 g/a/b/c'/ d'/f'/e'/g/ | a z [ac'e'a']2 || %93
!ff! !>![Gg]!>![Aa]/!>![=A=a]/ !>![Bb]!>![cc']/!>![dd']/ | !>![ee']!p! (=d/e/ =e/f/^f/g/ | %95
{/b} a/g/a/b/ c'/=b/c'/d'/ | e')!f!!8va(! !>![aa']/!>![bb']/ !>![c'c'']2!8va)! | %97
!ff! !>![Bb]!>![cc']/!>![^c^c']/ !>![=d=d']!>![ee']/!>![=e=e']/ | !>![ff'] (=A/B/ =B/c/d/=d/ | %99
{/f} e/=d/e/f/ g/e/B/G/ | c/B/G/F/ E2) | %101
!ff! !>![^d^d']!>![=e=e']/!>![^e^e']/ !>![^f^f']!>![^g^g']/!>![^a^a']/ | %102
 [=b=b'] (^A/=B/ ^B/^c/^^c/^d/ | =e/^d/e/^f/ ^g/^^f/g/=a/ | %104
 =b)!ff! !>![=e=e']/!>![^f^f']/ !>![^g^g']2 | %105
!ff! !>![=g=g']!>![ff']/!>![_f_f']/ !>![ee']!>![=d=d']/!>![cc']/ | !>![Bb] c/=d/{/f} e/d/e/=e/ | %107
{/g} f/=e/f/f/{/c'} b/=a/b/b/ | [ee']2 z!8va(! f'/_f'/ | e'!8va)! e (3f/g/f/ e | %110
 z [Bb] [ee'] f/_f/ | eE (3F/G/F/ E | [EGe] (=D/E/ F/G/A/B/) |: [CEc]4- | cA/B/ ce/d/ | [CEc]4- | %116
 [CEc] c/d/ eb/a/ | [Gdg]4- | [Gdg]d/e/{/g} fe/d/ | cB/A/ AG/A/ | B=A/B/ eE | [CEc]4- | %122
 [CEc]A/B/ cB/A/ | d d/f/ a2- | aa/a/{/b} ag/a/ | c'a/e/ c2- | !>!cB/A/ AG/A/ | B=A/B/ eE |1 %128
 [CA]/ E/=D/E/ F/G/A/B/ :|2 [CA] z [Acea]2 || %130
!ff! !>![Gg]!>![Aa]/!>![=A=a]/ !>![Bb]!>![cc']/!>![dd']/ | !>![ee'] (=d/e/ =e/f/^f/g/ | %132
{/b} a/g/a/b/ c'/=b/c'/d'/ | e')!ff!!8va(! !>![aa']/!>![bb']/ !>![c'c'']2!8va)! | %134
!ff! !>![Bb]!>![cc']/!>![^c^c']/ !>![=d=d']!>![ee']/!>![=e=e']/ | !>![ff']!p! (=A/B/ =B/c/d/=d/ | %136
{/f} e/=d/e/f/ g/e/B/G/ | c/B/G/F/ E2) | %138
!f! !>![^d^d']!>![=e=e']/!>![^e^e']/ !>![^f^f']!>![^g^g']/!>![^a^a']/ | %139
 [=b=b']!p! (^A/=B/ ^B/^c/^^c/^d/ | =e/^d/e/^f/ ^g/^^f/g/=a/ | %141
 =b)!ff! !>![=e=e']/!>![^f^f']/ !>![^g^g']2 | %142
 !>![=g=g']!>![ff']/!>![_f_f']/ !>![ee']!>![=d=d']/!>![cc']/ | !>![Bb] c/=d/{/f} e/d/e/=e/ | %144
{/g} f/=e/f/f/{/c'} b/=a/b/b/ | e' z!8va(! [e'g'b'e'']!8va)! ||[M:2/4] E/c/ | AE{/F} E/=D/E/F/ | %148
 EF/G/ A/B/c/d/ | e!>![Ace] !>![Ada]!>![Ac_g] | !>![Adf]!>![Fce] !>![FBd] f | %151
{/e'} d' F/G/ A/B/c/d/ | ef/g/ a/b/c'/d'/ | e'!8va(!=d'/e'/ =e'/f'/^f'/g'/ | %154
 a'!8va)! z [ac'e'a']2 |] %155
V:2
 z | !>![E,,E,]!>![G,,G,]!>![B,,B,]!>![E,E] | !>![G,G]2 z2 | !>![A,,A,]!>![C,C]!>![E,E]!>![A,A] | %4
 !>![Cc]2 z !>![C,,C,] | !>![D,,D,] [F,B,D]2 !>![D,,D,] | !>![E,,E,] [E,A,]2 [E,,E,] | %7
 [E,E] z z !>![B,,,B,,] | !>![E,,,E,,]2 z ||[M:2/4] z | A,, [E,A,C]/[E,A,C]/ [E,A,C][E,A,C] | %11
 A,, [E,A,C]2 z | A,,[E,A,C] C,[E,A,C] | B,, [E,G,D][E,G,D] z | %14
 E,, [E,G,D]/[E,G,D]/ [E,G,D][E,G,D] | B,, [E,G,D]2 z | B,,[E,G,D] E,,[E,G,D] | %17
 A,, [E,A,C][E,A,C] z | A,, [E,A,C]/[E,A,C]/ [E,A,C][E,A,C] | A,,2 [E,A,C] z | %20
 A,,[E,A,C] C,[E,A,C] | D, [B,DF] [B,DF] z | B,,[B,DF] D,[B,D_F] | E,[A,CE] [A,CE]2 | %24
 E,, [E,G,D]/[E,G,D]/ [E,G,D] [E,,E,] | [A,,,A,,] z [A,EA] || z | [F,,F,] [F,A,B,][F,A,B,] z | %28
 [B,,,B,,] [F,A,B,=D][F,A,B,D] z | [F,,F,] [F,A,B,=D] [B,,,B,,] [F,A,B,D] | %30
 [E,,E,] [G,B,E][G,B,E] z | E,[B,E] G,[B,E] | F,[A,B,=D][A,B,D] z | B,,[A,B,=D] =D,[A,B,D] | %34
 E,[G,B,E] [G,B,E] z | [F,,F,] [F,A,B,][F,A,B,] z | [B,,,B,,] [F,A,B,=D][F,A,B,D] z | %37
 [F,,F,] [F,A,B,=D] [B,,,B,,] [F,A,B,D] | [E,,E,] [G,B,E][G,B,E] z | [=A,,=A,] [A,CE_G][A,CEG] z | %40
 [B,,B,] [B,EG] z z | [F,,F,] [=A,CEF] [B,,,B,,] [_A,B,=D] | [E,,E,] z z x | x z z [B,D] | %44
 [E,B,] z z2 | z4 | A,[CE] E,[CE] | B, E/F/ E2 | B,[DE] E,[DE] | A, E/F/ E2 | A,[EA] C[EA] | %51
 D A/B/ A2 | B,[FB] =D[FB] | E[K:treble] [Bd] [GB] [EG] |[K:bass] [A,,A,][A,CE] [E,,E,][A,CE] | %55
 [B,,B,][B,DE] [B,DE]2 | [B,,B,][B,DE] [E,,E,][B,DE] | [A,,A,][A,CE] [A,CE] z | %58
 [G,,G,][B,CE] [C,,C,][B,CE] | [F,,F,][A,CF] z [=D,,=D,] | [E,,E,] [A,CE] z [E,,E,] | %61
 [A,,,A,,] z [A,EA] z | [B,,,B,,] [F,A,B,=D][F,A,B,D] z | [F,,F,] [F,A,B,=D] [B,,,B,,] [F,A,B,D] | %64
 [E,,E,] [G,B,E][G,B,E] z | E,[B,E] G,[B,E] | F,[A,B,=D][A,B,D] z | B,,[A,B,=D] =D,[A,B,D] | %68
 E,[G,B,E] [G,B,E] z | [F,,F,] [F,A,B,][F,A,B,] z | [B,,,B,,] [F,A,B,=D][F,A,B,D] z | %71
 [F,,F,] [F,A,B,=D] [B,,,B,,] [F,A,B,D] | [E,,E,] [G,B,E][G,B,E] z | [=A,,=A,] [A,CE_G][A,CEG] z | %74
 [B,,B,] [B,EG] z z | [F,,F,] [=A,CEF] [B,,,B,,] [_A,B,=D] | [E,,E,] z [E,G,B,E] z | %77
 A,, [E,A,C]/[E,A,C]/ [E,A,C][E,A,C] | A,, [E,A,C]2 z | A,,[E,A,C] C,[E,A,C] | %80
 B,, [E,G,D][E,G,D] z | E,, [E,G,D]/[E,G,D]/ [E,G,D][E,G,D] | B,, [E,G,D]2 z | %83
 B,,[E,G,D] E,,[E,G,D] | A,, [E,A,C][E,A,C] z | A,, [E,A,C]/[E,A,C]/ [E,A,C][E,A,C] | %86
 A,,2 [E,A,C] z | A,,[E,A,C] C,[E,A,C] | D, [B,DF] [B,DF] z | B,,[B,DF] D,[B,D_F] | %90
 E,[A,CE] [A,CE]2 | E,, [E,G,D]/[E,G,D]/ [E,G,D] [E,,E,] | [A,,,A,,] z [A,A]2 || %93
 !>![E,E]!>![D,D] !>![B,,B,]!>![G,,G,] | !>![E,,E,] [B,EG]2 [E,,E,] | [A,,,A,,][A,C] E,[A,C] | %96
 A,, !>![E,A,C]2 !>![E,A,C] | !>![B,,B,]!>![A,,A,] !>![F,,F,]!>![=D,,=D,] | %98
 !>![B,,,B,,] [F,A,B,=D]2 [B,,,B,,] | [E,,E,] [G,B,E] B,, [G,B,E] | E, [G,B,E] [G,B,]2 | %101
 !>![=B,,=B,]!>![=A,,=A,] !>![^F,,^F,]!>![^D,,^D,] | [=B,,,=B,,] [^F,=A,=B,^D]2 [B,,B,] | %103
 [=E,,=E,][^G,=B,=E] =B,,[G,B,E] | E, [^G,=B,=E] [G,B,E]2 | %105
 !>![_B,,,_B,,]!>![E,,E,] !>![G,,G,]!>![B,,B,] | !>![E,E] z z [G,G] | F [=A,CE] [B,,B,]2 | %108
 [E,,E,]2 z2 | .e.E[K:bass] E.E, | [E,,E,]2 z2 | EE, E,E,, | [E,,,E,,] z z2 |: %113
 [A,,,A,,] (E,/=E,/ F,)(F,/_F,/ | [A,,E,]) CE_F | [A,,,A,,] (E,/=E,/ F,)(F,/_F,/ | [A,,E,])xCA, | %117
 [E,,E,] (B,,/=B,,/ C,)(C,/_C,/ | [E,,B,,]) [B,EG]2 [E,,E,] | [A,,A,] [E,A,C]2 [B,,B,] | %120
 [E,,E,] [E,G,D]2 [E,,E,] | [A,,,A,,] A,/=A,/ B,B,/__B,/ | [A,,A,] CE_F | %123
 [D,D] [A,DF]/[A,DF]/ [A,DF][A,DF] | !>!F2 !>!_F2 | E4 | [F,F][A,C] !>!B,2 | %127
 [E,E] [G,B,]2 [E,,E,] |1 [A,,,A,,] z !>![E,,,E,,]2 :|2 [A,,,A,,] z [A,CEA]2 || %130
 !>![E,E]!>![D,D] !>![B,,B,]!>![G,,G,] | !>![E,,E,] [B,EG]2 [E,,E,] | [A,,,A,,][A,C] E,[A,C] | %133
 A,, [E,A,C]2 [E,A,C] | !>![B,,B,]!>![A,,A,] !>![F,,F,]!>![=D,,=D,] | %135
 !>![B,,,B,,] [F,A,B,=D]2 [B,,,B,,] | [E,,E,] [G,B,E] B,, [G,B,E] | E, [G,B,E] [G,B,]2 | %138
 !>![=B,,=B,]!>![=A,,=A,] !>![^F,,^F,]!>![^D,,^D,] | !>![=B,,,=B,,] [^F,=A,=B,^D]2 [B,,B,] | %140
 [=E,,=E,][^G,=B,=E] =B,,[G,B,E] | E, !>![^G,=B,=E] [G,B,E]2 | %142
 !>![_B,,,_B,,]!>![E,,E,] !>![G,,G,]!>![B,,B,] | !>![E,E] z z [G,G] | F [=A,CE] [B,,B,]2 | %145
 [E,,E,]"^D.C." z [E,,,E,,] ||[M:2/4] z | A,, z [E,A,C][E,A,C] | A,, !>![D,D]!>![C,C]!>![B,,B,] | %149
 !>![A,,A,] !>![_G,_G]!>![F,F]!>![E,E] | !>![D,D]!>![=A,,=A,] !>![B,,B,] z | %151
 [B,,,B,,] [F,B,D]2 !>![F,,F,] | !>![E,,E,]!>![E,E] !>![C,C]!>![A,,A,] | !>![E,,E,]2 z [E,,E,] | %154
 [A,,,A,,] z [A,CEA]2 |] %155
V:3
 x | x [Gd] [Gd]2 | x4 | x c c2 | x4 | x F F2 | x C C2 | x [G,D] [G,D]2- | [G,D]2 x ||[M:2/4] x | %10
 x4 | x4 | x4 | x4 | x4 | x4 | x4 | x4 | x4 | x4 | x4 | x4 | x4 | x4 | x4 | x2!8va(! x!8va)! || x | %27
 x4 | x4 | x4 | x4 | x2!8va(! x2 | x3!8va)! x | x4 | x4 | x4 | x4 | x4 | x3!8va(! x | x2!8va)! x2 | %40
 x4 | x4 | x3 [Bd] | [EB] x3 | x4 | x4 | x4 | x4 | x4 | x4 | x4 | x4 | x4 | x4 | x4 | x4 | x4 | %57
 x4 | x4 | x4 | x2 !>![dg]2 | x4 | x4 | x4 | x4 | x2!8va(! x2 | x3!8va)! x | x4 | x4 | x4 | x4 | %71
 x4 | x3!8va(! x | x2!8va)! x2 | x4 | x4 | x4 | x4 | x4 | x4 | x4 | x4 | x4 | x4 | x4 | x4 | x4 | %87
 x4 | x4 | x4 | x4 | x4 | x4 || x4 | x4 | x4 | x!8va(! x3!8va)! | x4 | x4 | x4 | x4 | x4 | x4 | %103
 x4 | x4 | x4 | x4 | x4 | x3!8va(! [gd']- | [gd']!8va)! [Gd] [Gd]2 | x3 [Gd]- | [Gd] [G,D] [G,D]2 | %112
 x4 |: x4 | [CE]2 x A | x4 | x3 [ce] | x4 | x4 | x4 | x4 | x4 | x4 | F x3 | x4 | x4 | x4 | x4 |1 %128
 x4 :|2 x4 || x4 | x4 | x4 | x!8va(! x3!8va)! | x4 | x4 | x4 | x4 | x4 | x4 | x4 | x4 | x4 | x4 | %144
 x4 | x2!8va(! x!8va)! ||[M:2/4] x | x4 | x4 | x4 | x4 | x4 | x4 | x!8va(! x3 | x!8va)! x3 |] %155
V:4
 x | x4 | x4 | x4 | x4 | x4 | x4 | x4 | x3 ||[M:2/4] x | x4 | x4 | x4 | x4 | x4 | x4 | x4 | x4 | %18
 x4 | x4 | x4 | x4 | x4 | x4 | x4 | x3 || x | x4 | x4 | x4 | x4 | x4 | x4 | x4 | x4 | x4 | x4 | %37
 x4 | x4 | x4 | x4 | x4 | x4 | x4 | x4 | x4 | x4 | x4 | x4 | x4 | x4 | x4 | x4 | x[K:treble] x3 | %54
[K:bass] x4 | x4 | x4 | x4 | x4 | x4 | x4 | x4 | x4 | x4 | x4 | x4 | x4 | x4 | x4 | x4 | x4 | x4 | %72
 x4 | x4 | x4 | x4 | x4 | x4 | x4 | x4 | x4 | x4 | x4 | x4 | x4 | x4 | x4 | x4 | x4 | x4 | x4 | %91
 x4 | x4 || x4 | x4 | x4 | x4 | x4 | x4 | x4 | x4 | x4 | x4 | x4 | x4 | x4 | x4 | %107
 F, x2 [=D,F,=A,] | x4 | x2[K:bass] x2 | x4 | x4 | x4 |: x4 | x A,3 | x4 | x E3 | x4 | x4 | x4 | %120
 x4 | x4 | x A,3 | x4 | [F,F][A,D] [_F,_F][A,D] | E,[A,C]/[A,C]/ [A,C][A,C] | x2 [B,,B,][=D,F,] | %127
 x4 |1 x4 :|2 x4 || x4 | x4 | x4 | x4 | x4 | x4 | x4 | x4 | x4 | x4 | x4 | x4 | x4 | x4 | %144
 F, x2 [=D,F,=A,] | x3 ||[M:2/4] x | x4 | x4 | x4 | x4 | x4 | x4 | x4 | x4 |] %155

